dist/assets/img/cases/2.svg

<svg width="148" height="46" viewBox="0 0 148 46" fill="none" xmlns="http://www.w3.org/2000/svg">
<path d="M53.919 18.4279L59.099 4.21094H61.249L66.429 18.4279H64.341L62.887 14.3399H57.44L55.987 18.4279H53.918H53.919ZM57.973 12.6889H62.355L60.758 8.19994L60.184 6.16494H60.144C59.938 7.02494 59.754 7.70294 59.59 8.19894L57.973 12.6899V12.6889ZM68.265 18.4279V8.23794H70.251V12.3469H71.705L74.53 8.23894H76.783L73.323 13.0919V13.1319L77.193 18.4279H74.838L71.746 14.0179H70.25V18.4279H68.264H68.265ZM78.003 15.6499C78.003 14.8979 78.214 14.2669 78.638 13.7559C79.061 13.2459 79.62 12.8839 80.317 12.6689C80.9571 12.457 81.6146 12.3021 82.282 12.2059C82.882 12.1259 83.518 12.0849 84.187 12.0849H84.719V11.8829C84.719 10.3929 83.961 9.64794 82.446 9.64794C81.45 9.64794 80.48 9.97794 79.539 10.6349L78.739 9.20494C79.163 8.85594 79.736 8.56694 80.459 8.33894C81.1539 8.11535 81.879 8 82.609 7.99694C83.92 7.99694 84.931 8.33894 85.64 9.02394C86.35 9.70894 86.705 10.6949 86.705 11.9839V18.4279H84.842V17.4009L84.903 16.5959H84.863C84.5409 17.2087 84.0597 17.7234 83.47 18.0859C82.87 18.4759 82.2 18.6699 81.463 18.6699C80.521 18.6699 79.709 18.3949 79.027 17.8439C78.344 17.2939 78.003 16.5619 78.003 15.6489V15.6499ZM79.989 15.4879C79.989 15.9309 80.159 16.3139 80.501 16.6359C80.842 16.9579 81.32 17.1189 81.934 17.1189C82.754 17.1189 83.422 16.7839 83.941 16.1129C84.46 15.4409 84.719 14.6959 84.719 13.8769V13.4949H84.207C81.395 13.4949 79.989 14.1589 79.989 15.4879ZM91.668 16.8169H96.255V9.82994H93.142V10.3739C93.142 13.1669 92.651 15.3139 91.668 16.8179V16.8169ZM88.351 16.8169H89.621C90.699 15.3669 91.238 13.1319 91.238 10.1109V8.23994H98.241V16.8179H99.715V20.8459H97.893V18.4289H90.214V20.8459H88.351V16.8179V16.8169ZM101.003 13.3339C101.003 11.7359 101.494 10.4469 102.477 9.46694C103.46 8.48694 104.702 7.99694 106.204 7.99694C107.61 7.99694 108.709 8.45294 109.501 9.36694C110.292 10.2659 110.688 11.3999 110.688 12.7699C110.688 12.9439 110.661 13.2199 110.606 13.5949H103.071C103.126 14.6549 103.487 15.4879 104.156 16.0919C104.839 16.6829 105.665 16.9789 106.634 16.9789C107.767 16.9789 108.784 16.5819 109.685 15.7899L110.524 17.2199C110.033 17.6629 109.419 18.0189 108.681 18.2869C107.985 18.5375 107.251 18.667 106.511 18.6699C104.9 18.6699 103.576 18.1669 102.539 17.1599C101.515 16.1399 101.003 14.8639 101.003 13.3339ZM103.132 12.1859H108.681C108.654 11.3399 108.402 10.6819 107.924 10.2119C107.46 9.74194 106.873 9.50694 106.163 9.50694C105.385 9.50694 104.716 9.74894 104.156 10.2319C103.61 10.7019 103.269 11.3529 103.132 12.1859ZM112.647 18.4279L113.548 8.23794H115.759L118.4 13.9979L118.974 15.3679H119.015C119.219 14.8709 119.411 14.4139 119.588 13.9979L122.291 8.23794H124.461L125.362 18.4279H123.438L122.987 12.3669L123.008 10.6149H122.967C122.789 11.0849 122.571 11.5809 122.311 12.1049L119.854 17.1999H118.155L115.698 12.1249L115.042 10.6149H115.001L115.022 12.3669L114.571 18.4279H112.647ZM128.034 18.4279V8.23794H129.938V14.3199C129.938 15.0319 129.918 15.4879 129.877 15.6899H129.918C129.986 15.5279 130.293 15.0719 130.839 14.3199L135.303 8.23894H137.228V18.4289H135.303V12.3469C135.303 12.1589 135.31 11.8969 135.323 11.5609C135.351 11.2119 135.364 11.0239 135.364 10.9979H135.323C135.31 11.0239 135.009 11.4739 134.422 12.3469L129.938 18.4279H128.034ZM139.227 18.4279L141.623 15.0449L142.094 14.4209V14.4009C141.466 14.2263 140.908 13.8603 140.497 13.3539C140.06 12.8169 139.842 12.1789 139.842 11.4409C139.842 10.4209 140.176 9.63494 140.845 9.08394C141.528 8.51994 142.428 8.23894 143.548 8.23894H147.684V18.4289H145.698V14.7429H143.957L141.418 18.4279H139.227ZM143.978 13.3129H145.698V9.58794H144.039C142.579 9.58794 141.848 10.1979 141.848 11.4199C141.848 12.0379 142.046 12.5079 142.442 12.8299C142.838 13.1519 143.35 13.3129 143.978 13.3129ZM56.435 32.8399C56.435 30.7579 57.125 29.0259 58.503 27.6429C59.895 26.2609 61.656 25.5689 63.786 25.5689C65.984 25.5689 67.745 26.1939 69.069 27.4419L68.045 28.9319C67.513 28.4619 66.865 28.0869 66.1 27.8049C65.3877 27.5302 64.6314 27.3869 63.868 27.3819C62.23 27.3819 60.926 27.8989 59.957 28.9319C59.001 29.9659 58.523 31.2619 58.523 32.8189C58.523 34.3889 59.015 35.7189 59.998 36.8059C60.981 37.8939 62.284 38.4379 63.908 38.4379C64.714 38.4379 65.506 38.2759 66.284 37.9539C67.054 37.6325 67.7558 37.1676 68.352 36.5839L69.437 38.0139C67.908 39.5179 66.045 40.2699 63.847 40.2699C61.649 40.2699 59.861 39.5649 58.482 38.1559C57.117 36.7329 56.435 34.9599 56.435 32.8389V32.8399ZM70.764 37.2499C70.764 36.4979 70.976 35.8669 71.399 35.3559C71.822 34.8459 72.382 34.4839 73.078 34.2689C73.788 34.0409 74.443 33.8859 75.044 33.8059C75.644 33.7259 76.279 33.6849 76.948 33.6849H77.48V33.4829C77.48 31.9929 76.723 31.2479 75.207 31.2479C74.211 31.2479 73.242 31.5779 72.3 32.2349L71.501 30.8049C71.924 30.4559 72.498 30.1679 73.221 29.9389C73.9159 29.7154 74.641 29.6 75.371 29.5969C76.681 29.5969 77.691 29.9389 78.401 30.6239C79.111 31.3089 79.467 32.2949 79.467 33.5839V40.0279H77.603V39.0009L77.665 38.1959H77.624C77.3019 38.8087 76.8207 39.3234 76.231 39.6859C75.631 40.0759 74.961 40.2699 74.225 40.2699C73.283 40.2699 72.47 39.9949 71.788 39.4439C71.105 38.8939 70.764 38.1619 70.764 37.2489V37.2499ZM72.75 37.0879C72.75 37.5309 72.92 37.9139 73.262 38.2359C73.603 38.5579 74.082 38.7189 74.695 38.7189C75.515 38.7189 76.183 38.3839 76.702 37.7119C77.221 37.0419 77.48 36.2959 77.48 35.4769V35.0949H76.968C74.156 35.0949 72.75 35.7589 72.75 37.0879ZM82.422 37.2299V25.8099H84.388V36.9069C84.388 37.4569 84.483 37.8399 84.674 38.0549C84.879 38.2559 85.159 38.3569 85.514 38.3569C85.664 38.3569 85.78 38.3499 85.862 38.3369V40.0689C85.575 40.1089 85.357 40.1289 85.207 40.1289C83.35 40.1289 82.422 39.1629 82.422 37.2289V37.2299ZM87.881 37.2299V25.8099H89.847V36.9069C89.847 37.4569 89.942 37.8399 90.134 38.0549C90.338 38.2559 90.618 38.3569 90.973 38.3569C91.123 38.3569 91.239 38.3499 91.321 38.3369V40.0689C91.034 40.1089 90.816 40.1289 90.666 40.1289C88.809 40.1289 87.881 39.1629 87.881 37.2289V37.2299ZM93.77 36.3029V31.5299H92.42V29.9399H93.812V27.0399H95.757V29.9399H98.255V31.5299H95.757V36.0809C95.757 36.4709 95.812 36.8129 95.921 37.1079C96.031 37.3899 96.16 37.6119 96.311 37.7729C96.474 37.9339 96.658 38.0619 96.863 38.1559C97.082 38.2489 97.273 38.3099 97.436 38.3359C97.614 38.3639 97.791 38.3769 97.969 38.3769C98.146 38.3769 98.303 38.3639 98.439 38.3369V40.0689C98.2085 40.1011 97.9766 40.1212 97.744 40.1289C97.43 40.1289 97.116 40.1019 96.802 40.0489C96.4509 39.9947 96.1073 39.9001 95.778 39.7669C95.4111 39.6155 95.0719 39.4043 94.774 39.1419C94.501 38.8739 94.263 38.4979 94.058 38.0149C93.867 37.5179 93.771 36.9469 93.771 36.3029H93.77ZM99.683 34.9129C99.683 33.3959 100.222 32.1339 101.301 31.1269C102.379 30.1069 103.696 29.5969 105.253 29.5969C106.823 29.5969 108.147 30.0999 109.225 31.1069C110.303 32.1139 110.843 33.3829 110.843 34.9129C110.843 36.4429 110.303 37.7189 109.225 38.7399C108.147 39.7599 106.829 40.2699 105.273 40.2699C103.717 40.2699 102.393 39.7599 101.301 38.7399C100.222 37.7199 99.683 36.4439 99.683 34.9129ZM101.71 34.9129C101.71 35.9729 102.052 36.8529 102.734 37.5509C103.43 38.2359 104.277 38.5779 105.273 38.5779C106.256 38.5779 107.096 38.2289 107.792 37.5309C108.488 36.8329 108.836 35.9609 108.836 34.9129C108.836 33.8659 108.488 32.9999 107.792 32.3159C107.463 31.9834 107.071 31.7208 106.638 31.5441C106.205 31.3674 105.741 31.2803 105.273 31.2879C104.277 31.2879 103.43 31.6309 102.734 32.3149C102.052 32.9999 101.71 33.8659 101.71 34.9129ZM113.114 36.3629V29.8399H115.1V35.9209C115.1 36.7269 115.236 37.3509 115.509 37.7939C115.782 38.2369 116.294 38.4589 117.045 38.4589C118.069 38.4589 118.888 38.0829 119.502 37.3309C120.117 36.5789 120.424 35.6729 120.424 34.6119V29.8399H122.389V40.0299H120.465V38.6199L120.547 37.8749H120.506C120.233 38.4789 119.755 39.0289 119.072 39.5249C118.39 40.0229 117.584 40.2709 116.656 40.2709C114.294 40.2709 113.114 38.9689 113.114 36.3639V36.3629ZM124.779 34.9339C124.779 33.4159 125.297 32.1479 126.335 31.1269C127.386 30.1069 128.717 29.5969 130.328 29.5969C131.966 29.5969 133.263 30.0939 134.218 31.0869L133.276 32.4569C132.485 31.6769 131.529 31.2879 130.41 31.2879C129.372 31.2879 128.512 31.6379 127.83 32.3359C127.147 33.0199 126.806 33.8799 126.806 34.9129C126.806 35.9609 127.147 36.8329 127.83 37.5309C128.526 38.2289 129.406 38.5779 130.471 38.5779C131.044 38.5779 131.618 38.4579 132.191 38.2159C132.745 37.9832 133.247 37.6407 133.665 37.2089L134.464 38.6389C133.986 39.1359 133.379 39.5319 132.641 39.8269C131.906 40.122 131.12 40.2724 130.328 40.2699C128.703 40.2699 127.372 39.7669 126.335 38.7599C125.297 37.7529 124.779 36.4769 124.779 34.9339ZM136.612 40.0279V25.8109H138.598V31.0869L138.517 31.9329H138.558C138.844 31.3429 139.329 30.8049 140.011 30.3219C140.694 29.8389 141.506 29.5969 142.448 29.5969C144.81 29.5969 145.99 30.8989 145.99 33.5039V40.0279H144.004V33.9469C144.004 33.1269 143.868 32.4969 143.595 32.0539C143.335 31.6109 142.823 31.3889 142.059 31.3889C141.062 31.3889 140.237 31.7519 139.581 32.4769C138.926 33.1879 138.598 34.0939 138.598 35.1949V40.0279H136.612Z" fill="white"/>
<path d="M11.91 18.283L19.769 0H31.254L51.022 46H38.322L34.277 35.165H25.66C22.11 35.165 19.232 32.335 19.232 28.845C19.232 25.354 22.11 22.524 25.66 22.524H29.555L25.51 11.689C22.8947 11.7035 20.3158 12.3032 17.9625 13.4442C15.6091 14.5852 13.5411 16.2386 11.91 18.283Z" fill="url(#paint0_linear)"/>
<path d="M8.374 26.5139L0 45.9999H25.66C16.025 45.9999 8.214 38.3199 8.214 28.8439C8.214 28.0539 8.268 27.2759 8.374 26.5139Z" fill="url(#paint1_linear)"/>
<defs>
<linearGradient id="paint0_linear" x1="25.511" y1="0.038" x2="22.629" y2="45.819" gradientUnits="userSpaceOnUse">
<stop offset="0.062" stop-color="#00B5DA"/>
<stop offset="0.515" stop-color="#7E92FF"/>
<stop offset="1" stop-color="#CA75ED"/>
</linearGradient>
<linearGradient id="paint1_linear" x1="25.511" y1="0.0379155" x2="22.629" y2="45.8189" gradientUnits="userSpaceOnUse">
<stop offset="0.062" stop-color="#00B5DA"/>
<stop offset="0.515" stop-color="#7E92FF"/>
<stop offset="1" stop-color="#CA75ED"/>
</linearGradient>
</defs>
</svg>

<svg width="148" height="46" viewBox="0 0 148 46" fill="none" xmlns="http://www.w3.org/2000/svg"><path d="M53.919 18.428l5.18-14.217h2.15l5.18 14.217h-2.088l-1.454-4.088H57.44l-1.453 4.088h-2.069.001zm4.054-5.74h4.382L60.758 8.2l-.574-2.035h-.04c-.206.86-.39 1.538-.554 2.034l-1.617 4.49zm10.292 5.74V8.238h1.986v4.109h1.454l2.825-4.108h2.253l-3.46 4.853v.04l3.87 5.296h-2.355l-3.092-4.41H70.25v4.41h-1.986.001zm9.738-2.778c0-.752.211-1.383.635-1.894.423-.51.982-.872 1.679-1.087a11.45 11.45 0 011.965-.463c.6-.08 1.236-.121 1.905-.121h.532v-.202c0-1.49-.758-2.235-2.273-2.235-.996 0-1.966.33-2.907.987l-.8-1.43c.424-.35.997-.638 1.72-.866a7.117 7.117 0 012.15-.342c1.311 0 2.322.342 3.031 1.027.71.685 1.065 1.67 1.065 2.96v6.444h-1.863V17.4l.061-.805h-.04a3.854 3.854 0 01-1.393 1.49c-.6.39-1.27.584-2.007.584-.942 0-1.754-.275-2.436-.826-.683-.55-1.024-1.282-1.024-2.195zm1.986-.162c0 .443.17.826.512 1.148.341.322.819.483 1.433.483.82 0 1.488-.335 2.007-1.006.519-.672.778-1.417.778-2.236v-.382h-.512c-2.812 0-4.218.664-4.218 1.993zm11.679 1.329h4.587V9.83h-3.113v.544c0 2.793-.491 4.94-1.474 6.444v-.001zm-3.317 0h1.27c1.078-1.45 1.617-3.685 1.617-6.706V8.24h7.003v8.578h1.474v4.028h-1.822v-2.417h-7.679v2.417h-1.863v-4.029zm12.652-3.483c0-1.598.491-2.887 1.474-3.867s2.225-1.47 3.727-1.47c1.406 0 2.505.456 3.297 1.37.791.899 1.187 2.033 1.187 3.403 0 .174-.027.45-.082.825h-7.535c.055 1.06.416 1.893 1.085 2.497.683.59 1.509.887 2.478.887 1.133 0 2.15-.397 3.051-1.19l.839 1.43c-.491.444-1.105.8-1.843 1.068a6.48 6.48 0 01-2.17.383c-1.611 0-2.935-.503-3.972-1.51-1.024-1.02-1.536-2.296-1.536-3.826zm2.129-1.148h5.549c-.027-.846-.279-1.504-.757-1.974-.464-.47-1.051-.705-1.761-.705-.778 0-1.447.242-2.007.725-.546.47-.887 1.12-1.024 1.954zm9.515 6.242l.901-10.19h2.211l2.641 5.76.574 1.37h.041c.204-.497.396-.954.573-1.37l2.703-5.76h2.17l.901 10.19h-1.924l-.451-6.061.021-1.752h-.041c-.178.47-.396.966-.656 1.49l-2.457 5.095h-1.699l-2.457-5.075-.656-1.51h-.041l.021 1.752-.451 6.06h-1.924zm15.387 0V8.238h1.904v6.082c0 .712-.02 1.168-.061 1.37h.041c.068-.162.375-.618.921-1.37l4.464-6.081h1.925v10.19h-1.925v-6.082c0-.188.007-.45.02-.786.028-.35.041-.537.041-.563h-.041c-.013.026-.314.476-.901 1.349l-4.484 6.08h-1.904zm11.193 0l2.396-3.383.471-.624v-.02a3.14 3.14 0 01-1.597-1.047c-.437-.537-.655-1.175-.655-1.913 0-1.02.334-1.806 1.003-2.357.683-.564 1.583-.845 2.703-.845h4.136v10.19h-1.986v-3.686h-1.741l-2.539 3.685h-2.191zm4.751-5.115h1.72V9.588h-1.659c-1.46 0-2.191.61-2.191 1.832 0 .618.198 1.088.594 1.41.396.322.908.483 1.536.483zM56.435 32.84c0-2.082.69-3.814 2.068-5.197 1.392-1.382 3.153-2.074 5.283-2.074 2.198 0 3.959.625 5.283 1.873l-1.024 1.49c-.532-.47-1.18-.845-1.945-1.127a6.318 6.318 0 00-2.232-.423c-1.638 0-2.942.517-3.911 1.55-.956 1.034-1.434 2.33-1.434 3.887 0 1.57.492 2.9 1.475 3.987.983 1.088 2.286 1.632 3.91 1.632.806 0 1.598-.162 2.376-.484a6.578 6.578 0 002.068-1.37l1.085 1.43c-1.529 1.504-3.392 2.256-5.59 2.256s-3.986-.705-5.365-2.114c-1.365-1.423-2.047-3.196-2.047-5.317zm14.329 4.41c0-.752.212-1.383.635-1.894.423-.51.983-.872 1.679-1.087.71-.228 1.365-.383 1.966-.463.6-.08 1.235-.121 1.904-.121h.532v-.202c0-1.49-.757-2.235-2.273-2.235-.996 0-1.965.33-2.907.987l-.799-1.43c.423-.35.997-.637 1.72-.866a7.12 7.12 0 012.15-.342c1.31 0 2.32.342 3.03 1.027.71.685 1.066 1.67 1.066 2.96v6.444h-1.864V39l.062-.805h-.041a3.854 3.854 0 01-1.393 1.49c-.6.39-1.27.584-2.006.584-.942 0-1.755-.275-2.437-.826-.683-.55-1.024-1.282-1.024-2.195zm1.986-.162c0 .443.17.826.512 1.148.341.322.82.483 1.433.483.82 0 1.488-.335 2.007-1.007.519-.67.778-1.416.778-2.235v-.382h-.512c-2.812 0-4.218.664-4.218 1.993zm9.672.142V25.81h1.966v11.097c0 .55.095.933.286 1.148.205.2.485.302.84.302.15 0 .266-.007.348-.02v1.732c-.287.04-.505.06-.655.06-1.857 0-2.785-.966-2.785-2.9zm5.459 0V25.81h1.966v11.097c0 .55.095.933.287 1.148.204.2.484.302.839.302.15 0 .266-.007.348-.02v1.732c-.287.04-.505.06-.655.06-1.857 0-2.785-.966-2.785-2.9zm5.889-.927V31.53h-1.35v-1.59h1.392v-2.9h1.945v2.9h2.498v1.59h-2.498v4.55c0 .39.055.733.164 1.028.11.282.239.504.39.665.163.16.347.289.552.383.219.093.41.154.573.18.178.028.355.04.533.04.177 0 .334-.012.47-.04v1.733c-.23.032-.462.052-.695.06-.314 0-.628-.027-.942-.08a4.604 4.604 0 01-1.024-.282 3.592 3.592 0 01-1.004-.625c-.273-.268-.511-.644-.716-1.127-.191-.497-.287-1.068-.287-1.712h-.001zm5.913-1.39c0-1.517.539-2.78 1.618-3.786 1.078-1.02 2.395-1.53 3.952-1.53 1.57 0 2.894.503 3.972 1.51 1.078 1.007 1.618 2.276 1.618 3.806 0 1.53-.54 2.806-1.618 3.827-1.078 1.02-2.396 1.53-3.952 1.53s-2.88-.51-3.972-1.53c-1.079-1.02-1.618-2.296-1.618-3.827zm2.027 0c0 1.06.342 1.94 1.024 2.638.696.685 1.543 1.027 2.539 1.027.983 0 1.823-.35 2.519-1.047.696-.698 1.044-1.57 1.044-2.618 0-1.047-.348-1.913-1.044-2.597a3.465 3.465 0 00-2.519-1.028c-.996 0-1.843.343-2.539 1.027-.682.685-1.024 1.55-1.024 2.598zm11.404 1.45V29.84h1.986v6.08c0 .807.136 1.43.409 1.874.273.443.785.665 1.536.665 1.024 0 1.843-.376 2.457-1.128.615-.752.922-1.658.922-2.72V29.84h1.965v10.19h-1.924v-1.41l.082-.745h-.041c-.273.604-.751 1.154-1.434 1.65-.682.498-1.488.746-2.416.746-2.362 0-3.542-1.302-3.542-3.907v-.001zm11.665-1.43c0-1.517.518-2.785 1.556-3.806 1.051-1.02 2.382-1.53 3.993-1.53 1.638 0 2.935.497 3.89 1.49l-.942 1.37c-.791-.78-1.747-1.17-2.866-1.17-1.038 0-1.898.35-2.58 1.049-.683.684-1.024 1.544-1.024 2.577 0 1.048.341 1.92 1.024 2.618.696.698 1.576 1.047 2.641 1.047.573 0 1.147-.12 1.72-.362a4.45 4.45 0 001.474-1.007l.799 1.43c-.478.497-1.085.893-1.823 1.188a6.158 6.158 0 01-2.313.443c-1.625 0-2.956-.503-3.993-1.51-1.038-1.007-1.556-2.283-1.556-3.826zm11.833 5.095V25.81h1.986v5.276l-.081.846h.041c.286-.59.771-1.128 1.453-1.611.683-.483 1.495-.725 2.437-.725 2.362 0 3.542 1.302 3.542 3.907v6.524h-1.986v-6.081c0-.82-.136-1.45-.409-1.893-.26-.443-.772-.665-1.536-.665-.997 0-1.822.363-2.478 1.088-.655.71-.983 1.617-.983 2.718v4.833h-1.986z" fill="#fff"/><path d="M11.91 18.283L19.769 0h11.485l19.768 46h-12.7l-4.045-10.835H25.66c-3.55 0-6.428-2.83-6.428-6.32 0-3.491 2.878-6.321 6.428-6.321h3.895L25.51 11.689a17.523 17.523 0 00-13.6 6.594z" fill="url(#paint0_linear)"/><path d="M8.374 26.514L0 46h25.66c-9.635 0-17.446-7.68-17.446-17.156 0-.79.054-1.568.16-2.33z" fill="url(#paint1_linear)"/><defs><linearGradient id="paint0_linear" x1="25.511" y1=".038" x2="22.629" y2="45.819" gradientUnits="userSpaceOnUse"><stop offset=".062" stop-color="#00B5DA"/><stop offset=".515" stop-color="#7E92FF"/><stop offset="1" stop-color="#CA75ED"/></linearGradient><linearGradient id="paint1_linear" x1="25.511" y1=".038" x2="22.629" y2="45.819" gradientUnits="userSpaceOnUse"><stop offset=".062" stop-color="#00B5DA"/><stop offset=".515" stop-color="#7E92FF"/><stop offset="1" stop-color="#CA75ED"/></linearGradient></defs></svg>
